Obsidian-SemiLight/actions/16s/insert-table-of-contents.svg

<svg viewBox="0 0 16 16" xmlns="http://www.w3.org/2000/svg"><path d="m2 3v1h6v-1zm0 6v1h4v-1z" fill="#4d4d4d"/><path d="m11 3v1h1v2h-1v1h3v-1h-1v-2h1v-1zm-6 2v1h1v-1zm2 0v1h1v-1zm2 0v1h1v-1zm0 4v1h1v2h-1v1h5v-1h-1v-2h1v-1h-3zm2 1h1v2h-1zm-8 1v1h1v-1zm2 0v1h1v-1zm2 0v1h1v-1z" fill="#3daee9"/></svg>

<svg xmlns="http://www.w3.org/2000/svg" viewBox="0 0 16 16">
  <defs id="defs3051">
    <style type="text/css" id="current-color-scheme">
      .ColorScheme-Text {
        color:#4d4d4d;
      }
      .ColorScheme-Highlight {
        color:#3daee9;
      }
      </style>
  </defs>
  <path 
        style="fill:currentColor;fill-opacity:1;stroke:none"
        d="M 2 3 L 2 4 L 8 4 L 8 3 L 2 3 z M 2 9 L 2 10 L 6 10 L 6 9 L 2 9 z "
        class="ColorScheme-Text"
        />
  <path 
        style="fill:currentColor;fill-opacity:1;stroke:none"
        d="M 11 3 L 11 4 L 12 4 L 12 6 L 11 6 L 11 7 L 14 7 L 14 6 L 13 6 L 13 4 L 14 4 L 14 3 L 11 3 z M 5 5 L 5 6 L 6 6 L 6 5 L 5 5 z M 7 5 L 7 6 L 8 6 L 8 5 L 7 5 z M 9 5 L 9 6 L 10 6 L 10 5 L 9 5 z M 9 9 L 9 10 L 10 10 L 10 12 L 9 12 L 9 13 L 14 13 L 14 12 L 13 12 L 13 10 L 14 10 L 14 9 L 11 9 L 9 9 z M 11 10 L 12 10 L 12 12 L 11 12 L 11 10 z M 3 11 L 3 12 L 4 12 L 4 11 L 3 11 z M 5 11 L 5 12 L 6 12 L 6 11 L 5 11 z M 7 11 L 7 12 L 8 12 L 8 11 L 7 11 z "
        class="ColorScheme-Highlight"
        />
</svg>
